X: 11014
T: CATHIE'S WALTZ
C: Bob McQuillen 29 Aug 95
B: Bob's Note Book 11 #14
R: waltz
Z: 2020 John Chambers <jc:trillian.mit.edu>
M: 3/4
L: 1/8
K: Em	% and G
GF \
| "Em"E2 GA GF | E2 GA Bc | "Am"B2 A3 G | F4 AG | "B"FG AB AG | F2 Ac BA | "Em"G2 E2 ED | E4 GA |
| "Em"BG EG Bd | BG E2 GB | "Am"d2 ed cB | B2 A2 Bc | "Em"B2 BG EG | "B7"F2 Ac BA | "Em"G2 E3 D | "Em"E4 :|
|: DE \
| "G"G6 | "E7"B4 e2 | "D7"d2 ed cB | B2 AB AG | F4 A2 | c4 e2 | "G"e2 d3 B | d4 Bd |
| "Em"g2 d2 dd | "G6"g2 d2 ag | "C"f2 e3 c | "Am"E2 A2 c2 | "G"B2 D2 B2 | "D7"A4 G2 | "G"G6- | G4 :|
%%begintext align
%% It's always such a
%% pleasure when I get to play with wonderful West Coast
%% fiddler Cathie Whitesides of Seattle. Besides being a great
%% fiddler, she also has to be one of the nicest people I know.
%% I'm forever in your debt, Cathie!
%%endtext

%%sep 1 1 500

%%sep 1 1 500

